src/images/svg/trade-types/basket-indices.svg

<svg width="48" height="48" viewBox="0 0 48 48" fill="none" xmlns="http://www.w3.org/2000/svg">
    <path
        d="M24 48C37.2548 48 48 37.2548 48 24C48 10.7452 37.2548 0 24 0C10.7452 0 0 10.7452 0 24C0 37.2548 10.7452 48 24 48Z"
        fill="#FF6444" fill-opacity="0.08" />
    <path fill-rule="evenodd" clip-rule="evenodd"
        d="M36.2778 20.9648H27.6109V18.0557H36.2778C36.6767 18.0557 37 18.379 37 18.7779V20.2426C37 20.6414 36.6767 20.9648 36.2778 20.9648ZM11.7222 18.0557H20.3887V20.9648H11.7222C11.3233 20.9648 11 20.6414 11 20.2426V18.7779C11 18.379 11.3233 18.0557 11.7222 18.0557ZM23.2776 26.0557C21.6821 26.0557 20.3887 24.7623 20.3887 23.1668V22.419H12.4443L15.8977 33.5473C15.9915 33.8495 16.2711 34.0554 16.5875 34.0554H31.4123C31.7287 34.0554 32.0083 33.8495 32.102 33.5473L35.5554 22.419H27.6109V23.1668C27.6109 24.7622 26.3176 26.0555 24.7223 26.0557V30.424C24.7223 30.8228 24.3989 31.1462 24.0001 31.1462C23.6012 31.1462 23.2778 30.8228 23.2778 30.424V26.0557H23.2776ZM19.6666 25.328C19.2677 25.328 18.9443 25.6513 18.9443 26.0502V30.424C18.9443 30.8228 19.2677 31.1462 19.6666 31.1462C20.0654 31.1462 20.3888 30.8228 20.3888 30.424V26.0502C20.3888 25.6513 20.0654 25.328 19.6666 25.328ZM28.3335 25.328C27.9347 25.328 27.6113 25.6513 27.6113 26.0502V30.424C27.6113 30.8228 27.9347 31.1462 28.3335 31.1462C28.7324 31.1462 29.0558 30.8228 29.0558 30.424V26.0502C29.0558 25.6513 28.7324 25.328 28.3335 25.328Z"
        fill="#FF6444" fill-opacity="0.48" />
    <path fill-rule="evenodd" clip-rule="evenodd"
        d="M23.2779 14.4446V23.1112H24.7224V14.4446H23.2779ZM21.8335 23.1112C21.8335 23.909 22.4802 24.5557 23.2779 24.5557H24.7224C25.5201 24.5557 26.1668 23.909 26.1668 23.1112V14.4446C26.1668 13.6468 25.5201 13.0001 24.7224 13.0001H23.2779C22.4802 13.0001 21.8335 13.6468 21.8335 14.4446V23.1112Z"
        fill="#FF6444" />
</svg>

<svg width="48" height="48" fill="none" xmlns="http://www.w3.org/2000/svg"><path d="M24 48c13.255 0 24-10.745 24-24S37.255 0 24 0 0 10.745 0 24s10.745 24 24 24Z" fill="#FF6444" fill-opacity=".08"/><path fill-rule="evenodd" clip-rule="evenodd" d="M36.278 20.965H27.61v-2.91h8.667c.399 0 .722.324.722.723v1.465a.722.722 0 0 1-.722.722Zm-24.556-2.91h8.667v2.91h-8.667a.722.722 0 0 1-.722-.722v-1.465c0-.399.323-.722.722-.722Zm11.556 8a2.889 2.889 0 0 1-2.89-2.888v-.748h-7.944l3.454 11.128a.722.722 0 0 0 .69.508h14.824a.722.722 0 0 0 .69-.508l3.453-11.128h-7.944v.748a2.889 2.889 0 0 1-2.889 2.889v4.368a.722.722 0 0 1-1.444 0v-4.368Zm-3.611-.727a.722.722 0 0 0-.723.722v4.374a.722.722 0 0 0 1.445 0V26.05a.722.722 0 0 0-.722-.722Zm8.666 0a.722.722 0 0 0-.722.722v4.374a.722.722 0 0 0 1.445 0V26.05a.722.722 0 0 0-.723-.722Z" fill="#FF6444" fill-opacity=".48"/><path fill-rule="evenodd" clip-rule="evenodd" d="M23.278 14.445v8.666h1.444v-8.666h-1.444Zm-1.444 8.666c0 .798.646 1.445 1.444 1.445h1.444c.798 0 1.445-.647 1.445-1.445v-8.666c0-.798-.647-1.445-1.445-1.445h-1.444c-.798 0-1.444.647-1.444 1.445v8.666Z" fill="#FF6444"/></svg>
